Adwaita++-Dark/actions/16/format-indent-more.svg

<svg fill="none" height="16" viewBox="0 0 16 16" width="16" xmlns="http://www.w3.org/2000/svg">
  <g fill="#e6ddff">
    <path d="m13 3.00021h-5v2h5z"/>
    <path d="m14 7.00021h-6v2h6z"/>
    <path d="m9 11.0002h-7v2h7z"/>
    <path d="m2 3.00021v1c0 .25689.12983.52846.3125.71875l1.2812 1.28119-1.2812 1.28122c-.18267.19029-.3125.46186-.3125.71875v1h1c.30945 0 .55232-.0903.75-.28125l2.6562-2.71881-2.6562-2.71881c-.19768-.19095-.44055-.28125-.75-.28125h-1z"/>
  </g>
</svg>

<svg xmlns="http://www.w3.org/2000/svg" fill="none" width="16" height="16" viewBox="0 0 16 16">
 <path fill="#E6DDFF" d="M13 3.00021H8V5.00021H13V3.00021Z"/>
 <path fill="#E6DDFF" d="M14 7.00021H8V9.00021H14V7.00021Z"/>
 <path fill="#E6DDFF" d="M9 11.0002H2V13.0002H9V11.0002Z"/>
 <path fill="#E6DDFF" d="M2 3.00021V4.00021C2 4.2571 2.12983 4.52867 2.3125 4.71896L3.5937 6.00015L2.3125 7.28137C2.12983 7.47166 2 7.74323 2 8.00012V9.00012H3C3.30945 9.00012 3.55232 8.90982 3.75 8.71887L6.4062 6.00006L3.75 3.28125C3.55232 3.0903 3.30945 3 3 3H2V3.00021Z"/>
</svg>
